X: 1
T: The Congress
R: reel
M: 4/4
L: 1/8
K: Ador
|:"Am"eAAA A2Bd |"Am"eaaf gedg |"Am"eAAA eAdA      |"G"BGGG Bcdg  |
|"Am"eAAA A2Bd  |"Am"eaaf gedB |"F"(c2 c)d ef(3gfe |"G"dBgB A2Bd :|]
|:"F"eaag abag  |"F"eaag eg d2 | "G"egdg egdg      |"G"eaaf gedg  |
|"F"eaag a2ag   |"F"eaaf gedB  | "E"GABd eaaf      | "E"gedB A2Bd:|]
